X:0542
M:C
L:1/8
Q:1/4=80 "Very Slow"
K:D
    D>FAd    Bd Ad'/b/               |   ad        a/g/f/e/     d2 d   :|
b|  ab/c'/   d'a      ba       d'f   |   ge'/g/    fd'/f/       e2 e>f  |\
    D>FAd             Bd       Ad'/b/|   ad        a/g/f/e/     d2 d>a  |
    ab/c'/   d'a      ba       d'f   |   g/f/g/e'/ f/e/f/d'/    e2 ef/g/|\
 {b}af/e/ {a}gf/e/ {g}fe/d/ {e}dc/B/ |{e}dc/B/     A/B/A/F/     D2 D   |]

